images/3234752.svg

<?xml version="1.0" encoding="UTF-8"?>
<svg xmlns="http://www.w3.org/2000/svg" xmlns:xlink="http://www.w3.org/1999/xlink" width="300pt" height="300pt" viewBox="0 0 300 300" version="1.1">
<defs>
<g>
<symbol overflow="visible" id="glyph0-0">
<path style="stroke:none;" d="M 0.453125 1.59375 L 0.453125 -6.34375 L 4.953125 -6.34375 L 4.953125 1.59375 Z M 0.953125 1.09375 L 4.453125 1.09375 L 4.453125 -5.84375 L 0.953125 -5.84375 Z M 0.953125 1.09375 "/>
</symbol>
<symbol overflow="visible" id="glyph0-1">
<path style="stroke:none;" d="M 3.546875 -5.953125 C 2.898438 -5.953125 2.382812 -5.710938 2 -5.234375 C 1.625 -4.753906 1.4375 -4.101562 1.4375 -3.28125 C 1.4375 -2.445312 1.625 -1.789062 2 -1.3125 C 2.382812 -0.832031 2.898438 -0.59375 3.546875 -0.59375 C 4.191406 -0.59375 4.703125 -0.832031 5.078125 -1.3125 C 5.453125 -1.789062 5.640625 -2.445312 5.640625 -3.28125 C 5.640625 -4.101562 5.453125 -4.753906 5.078125 -5.234375 C 4.703125 -5.710938 4.191406 -5.953125 3.546875 -5.953125 Z M 3.546875 -6.6875 C 4.460938 -6.6875 5.195312 -6.375 5.75 -5.75 C 6.300781 -5.132812 6.578125 -4.3125 6.578125 -3.28125 C 6.578125 -2.238281 6.300781 -1.410156 5.75 -0.796875 C 5.195312 -0.179688 4.460938 0.125 3.546875 0.125 C 2.617188 0.125 1.878906 -0.179688 1.328125 -0.796875 C 0.773438 -1.410156 0.5 -2.238281 0.5 -3.28125 C 0.5 -4.3125 0.773438 -5.132812 1.328125 -5.75 C 1.878906 -6.375 2.617188 -6.6875 3.546875 -6.6875 Z M 3.546875 -6.6875 "/>
</symbol>
<symbol overflow="visible" id="glyph0-2">
<path style="stroke:none;" d="M 0.890625 -6.5625 L 2.078125 -6.5625 L 4.984375 -1.078125 L 4.984375 -6.5625 L 5.84375 -6.5625 L 5.84375 0 L 4.65625 0 L 1.75 -5.484375 L 1.75 0 L 0.890625 0 Z M 0.890625 -6.5625 "/>
</symbol>
</g>
</defs>
<g id="surface32345">
<rect x="0" y="0" width="300" height="300" style="fill:rgb(100%,100%,100%);fill-opacity:1;stroke:none;"/>
<path style="fill:none;stroke-width:1.2;stroke-linecap:butt;stroke-linejoin:miter;stroke:rgb(0%,0%,0%);stroke-opacity:1;stroke-miterlimit:10;" d="M 42.9375 98.402344 L 39.09375 107.972656 "/>
<path style="fill:none;stroke-width:1.2;stroke-linecap:butt;stroke-linejoin:miter;stroke:rgb(100%,0%,0%);stroke-opacity:1;stroke-miterlimit:10;" d="M 39.09375 107.972656 L 35.25 117.542969 "/>
<path style="fill:none;stroke-width:1.2;stroke-linecap:butt;stroke-linejoin:miter;stroke:rgb(100%,0%,0%);stroke-opacity:1;stroke-miterlimit:10;" d="M 35.25 117.542969 L 41.617188 125.65625 "/>
<path style="fill:none;stroke-width:1.2;stroke-linecap:butt;stroke-linejoin:miter;stroke:rgb(0%,0%,0%);stroke-opacity:1;stroke-miterlimit:10;" d="M 41.617188 125.65625 L 47.984375 133.769531 "/>
<path style=" stroke:none;fill-rule:nonzero;fill:rgb(100%,100%,100%);fill-opacity:1;" d="M 31.25 112.042969 L 39.25 112.042969 L 39.25 123.042969 L 31.25 123.042969 Z M 31.25 112.042969 "/>
<g style="fill:rgb(100%,0%,0%);fill-opacity:1;">
  <use xlink:href="#glyph0-1" x="31.25" y="120.706055"/>
</g>
<path style="fill:none;stroke-width:1.2;stroke-linecap:butt;stroke-linejoin:miter;stroke:rgb(0%,0%,0%);stroke-opacity:1;stroke-miterlimit:10;" d="M 47.984375 133.769531 L 68.402344 130.859375 "/>
<path style="fill:none;stroke-width:1.2;stroke-linecap:butt;stroke-linejoin:miter;stroke:rgb(0%,0%,0%);stroke-opacity:1;stroke-miterlimit:10;" d="M 50.710938 138.285156 L 67.046875 135.953125 "/>
<path style="fill:none;stroke-width:1.2;stroke-linecap:butt;stroke-linejoin:miter;stroke:rgb(0%,0%,0%);stroke-opacity:1;stroke-miterlimit:10;" d="M 40.296875 152.914062 L 47.984375 133.769531 "/>
<path style="fill:none;stroke-width:1.2;stroke-linecap:butt;stroke-linejoin:miter;stroke:rgb(0%,0%,0%);stroke-opacity:1;stroke-miterlimit:10;" d="M 68.402344 130.859375 L 81.136719 147.085938 "/>
<path style="fill:none;stroke-width:1.2;stroke-linecap:butt;stroke-linejoin:miter;stroke:rgb(0%,0%,0%);stroke-opacity:1;stroke-miterlimit:10;" d="M 81.136719 147.085938 L 73.449219 166.230469 "/>
<path style="fill:none;stroke-width:1.2;stroke-linecap:butt;stroke-linejoin:miter;stroke:rgb(0%,0%,0%);stroke-opacity:1;stroke-miterlimit:10;" d="M 75.863281 147.191406 L 69.714844 162.503906 "/>
<path style="fill:none;stroke-width:1.2;stroke-linecap:butt;stroke-linejoin:miter;stroke:rgb(0%,0%,0%);stroke-opacity:1;stroke-miterlimit:10;" d="M 73.449219 166.230469 L 53.027344 169.140625 "/>
<path style="fill:none;stroke-width:1.2;stroke-linecap:butt;stroke-linejoin:miter;stroke:rgb(0%,0%,0%);stroke-opacity:1;stroke-miterlimit:10;" d="M 73.449219 166.230469 L 86.183594 182.457031 "/>
<path style="fill:none;stroke-width:1.2;stroke-linecap:butt;stroke-linejoin:miter;stroke:rgb(0%,0%,0%);stroke-opacity:1;stroke-miterlimit:10;" d="M 53.027344 169.140625 L 40.296875 152.914062 "/>
<path style="fill:none;stroke-width:1.2;stroke-linecap:butt;stroke-linejoin:miter;stroke:rgb(0%,0%,0%);stroke-opacity:1;stroke-miterlimit:10;" d="M 55.574219 164.523438 L 45.386719 151.539062 "/>
<path style="fill:none;stroke-width:1.2;stroke-linecap:butt;stroke-linejoin:miter;stroke:rgb(0%,0%,0%);stroke-opacity:1;stroke-miterlimit:10;" d="M 83.929688 181.554688 L 80.085938 191.125 "/>
<path style="fill:none;stroke-width:1.2;stroke-linecap:butt;stroke-linejoin:miter;stroke:rgb(100%,0%,0%);stroke-opacity:1;stroke-miterlimit:10;" d="M 80.085938 191.125 L 76.242188 200.695312 "/>
<path style="fill:none;stroke-width:1.2;stroke-linecap:butt;stroke-linejoin:miter;stroke:rgb(0%,0%,0%);stroke-opacity:1;stroke-miterlimit:10;" d="M 88.433594 183.363281 L 84.589844 192.933594 "/>
<path style="fill:none;stroke-width:1.2;stroke-linecap:butt;stroke-linejoin:miter;stroke:rgb(100%,0%,0%);stroke-opacity:1;stroke-miterlimit:10;" d="M 84.589844 192.933594 L 80.746094 202.503906 "/>
<path style="fill:none;stroke-width:1.2;stroke-linecap:butt;stroke-linejoin:miter;stroke:rgb(0%,0%,0%);stroke-opacity:1;stroke-miterlimit:10;" d="M 86.183594 182.457031 L 96.394531 181 "/>
<path style="fill:none;stroke-width:1.2;stroke-linecap:butt;stroke-linejoin:miter;stroke:rgb(0%,0%,100%);stroke-opacity:1;stroke-miterlimit:10;" d="M 96.394531 181 L 106.601562 179.542969 "/>
<path style=" stroke:none;fill-rule:nonzero;fill:rgb(100%,100%,100%);fill-opacity:1;" d="M 70.496094 196.097656 L 78.496094 196.097656 L 78.496094 207.097656 L 70.496094 207.097656 Z M 70.496094 196.097656 "/>
<g style="fill:rgb(100%,0%,0%);fill-opacity:1;">
  <use xlink:href="#glyph0-1" x="70.496094" y="204.760742"/>
</g>
<path style="fill:none;stroke-width:1.2;stroke-linecap:butt;stroke-linejoin:miter;stroke:rgb(0%,0%,100%);stroke-opacity:1;stroke-miterlimit:10;" d="M 106.601562 179.542969 L 112.96875 187.660156 "/>
<path style="fill:none;stroke-width:1.2;stroke-linecap:butt;stroke-linejoin:miter;stroke:rgb(0%,0%,0%);stroke-opacity:1;stroke-miterlimit:10;" d="M 112.96875 187.660156 L 119.335938 195.773438 "/>
<path style="fill:none;stroke-width:1.2;stroke-linecap:butt;stroke-linejoin:miter;stroke:rgb(0%,0%,0%);stroke-opacity:1;stroke-miterlimit:10;" d="M 114.292969 160.402344 L 110.449219 169.972656 "/>
<path style="fill:none;stroke-width:1.2;stroke-linecap:butt;stroke-linejoin:miter;stroke:rgb(0%,0%,100%);stroke-opacity:1;stroke-miterlimit:10;" d="M 110.449219 169.972656 L 106.601562 179.542969 "/>
<path style=" stroke:none;fill-rule:nonzero;fill:rgb(100%,100%,100%);fill-opacity:1;" d="M 103.601562 174.042969 L 110.601562 174.042969 L 110.601562 185.042969 L 103.601562 185.042969 Z M 103.601562 174.042969 "/>
<g style="fill:rgb(0%,0%,100%);fill-opacity:1;">
  <use xlink:href="#glyph0-2" x="103.601562" y="182.706055"/>
</g>
<path style="fill:none;stroke-width:1.2;stroke-linecap:butt;stroke-linejoin:miter;stroke:rgb(0%,0%,0%);stroke-opacity:1;stroke-miterlimit:10;" d="M 119.335938 195.773438 L 139.757812 192.859375 "/>
<path style="fill:none;stroke-width:1.2;stroke-linecap:butt;stroke-linejoin:miter;stroke:rgb(0%,0%,0%);stroke-opacity:1;stroke-miterlimit:10;" d="M 139.757812 192.859375 L 147.445312 173.71875 "/>
<path style="fill:none;stroke-width:1;stroke-linecap:butt;stroke-linejoin:miter;stroke:rgb(0%,0%,0%);stroke-opacity:1;stroke-miterlimit:10;" d="M 134.710938 157.492188 L 134.710938 157.492188 M 136.125 160.136719 L 136.945312 159.492188 M 137.539062 162.78125 L 139.179688 161.496094 M 138.953125 165.429688 L 141.414062 163.496094 M 140.367188 168.074219 L 143.648438 165.5 M 141.78125 170.722656 L 145.882812 167.503906 M 143.191406 173.367188 L 148.117188 169.503906 M 144.582031 175.964844 L 150.308594 171.472656 "/>
<path style="fill:none;stroke-width:1.2;stroke-linecap:butt;stroke-linejoin:miter;stroke:rgb(0%,0%,0%);stroke-opacity:1;stroke-miterlimit:10;" d="M 134.710938 157.492188 L 114.292969 160.402344 "/>
<path style="fill:none;stroke-width:1.2;stroke-linecap:butt;stroke-linejoin:miter;stroke:rgb(0%,0%,0%);stroke-opacity:1;stroke-miterlimit:10;" d="M 134.710938 157.492188 L 123.746094 140.019531 "/>
<path style="fill:none;stroke-width:1.2;stroke-linecap:butt;stroke-linejoin:miter;stroke:rgb(0%,0%,0%);stroke-opacity:1;stroke-miterlimit:10;" d="M 154.71875 152.457031 L 134.710938 157.492188 "/>
<path style="fill:none;stroke-width:1.2;stroke-linecap:butt;stroke-linejoin:miter;stroke:rgb(0%,0%,0%);stroke-opacity:1;stroke-miterlimit:10;" d="M 123.746094 140.019531 L 136.972656 124.191406 "/>
<path style="fill:none;stroke-width:1.2;stroke-linecap:butt;stroke-linejoin:miter;stroke:rgb(0%,0%,0%);stroke-opacity:1;stroke-miterlimit:10;" d="M 136.972656 124.191406 L 146.542969 128.035156 "/>
<path style="fill:none;stroke-width:1.2;stroke-linecap:butt;stroke-linejoin:miter;stroke:rgb(0%,0%,100%);stroke-opacity:1;stroke-miterlimit:10;" d="M 146.542969 128.035156 L 156.113281 131.878906 "/>
<path style="fill:none;stroke-width:1.2;stroke-linecap:butt;stroke-linejoin:miter;stroke:rgb(0%,0%,100%);stroke-opacity:1;stroke-miterlimit:10;" d="M 156.113281 131.878906 L 155.414062 142.167969 "/>
<path style="fill:none;stroke-width:1.2;stroke-linecap:butt;stroke-linejoin:miter;stroke:rgb(0%,0%,0%);stroke-opacity:1;stroke-miterlimit:10;" d="M 155.414062 142.167969 L 154.71875 152.457031 "/>
<path style="fill:none;stroke-width:1.2;stroke-linecap:butt;stroke-linejoin:miter;stroke:rgb(0%,0%,100%);stroke-opacity:1;stroke-miterlimit:10;" d="M 156.113281 131.878906 L 164.847656 126.394531 "/>
<path style="fill:none;stroke-width:1.2;stroke-linecap:butt;stroke-linejoin:miter;stroke:rgb(0%,0%,0%);stroke-opacity:1;stroke-miterlimit:10;" d="M 164.847656 126.394531 L 173.585938 120.910156 "/>
<path style=" stroke:none;fill-rule:nonzero;fill:rgb(100%,100%,100%);fill-opacity:1;" d="M 153.113281 126.378906 L 160.113281 126.378906 L 160.113281 137.378906 L 153.113281 137.378906 Z M 153.113281 126.378906 "/>
<g style="fill:rgb(0%,0%,100%);fill-opacity:1;">
  <use xlink:href="#glyph0-2" x="153.113281" y="135.041992"/>
</g>
<path style="fill:none;stroke-width:1.2;stroke-linecap:butt;stroke-linejoin:miter;stroke:rgb(0%,0%,0%);stroke-opacity:1;stroke-miterlimit:10;" d="M 173.585938 120.910156 L 191.816406 130.558594 "/>
<path style="fill:none;stroke-width:1.2;stroke-linecap:butt;stroke-linejoin:miter;stroke:rgb(0%,0%,0%);stroke-opacity:1;stroke-miterlimit:10;" d="M 191.816406 130.558594 L 192.578125 151.171875 "/>
<path style="fill:none;stroke-width:1.2;stroke-linecap:butt;stroke-linejoin:miter;stroke:rgb(0%,0%,0%);stroke-opacity:1;stroke-miterlimit:10;" d="M 196.746094 132.441406 L 197.355469 148.929688 "/>
<path style="fill:none;stroke-width:1.2;stroke-linecap:butt;stroke-linejoin:miter;stroke:rgb(0%,0%,0%);stroke-opacity:1;stroke-miterlimit:10;" d="M 209.289062 119.589844 L 191.816406 130.558594 "/>
<path style="fill:none;stroke-width:1.2;stroke-linecap:butt;stroke-linejoin:miter;stroke:rgb(0%,0%,0%);stroke-opacity:1;stroke-miterlimit:10;" d="M 192.578125 151.171875 L 210.8125 160.820312 "/>
<path style="fill:none;stroke-width:1.2;stroke-linecap:butt;stroke-linejoin:miter;stroke:rgb(0%,0%,0%);stroke-opacity:1;stroke-miterlimit:10;" d="M 210.8125 160.820312 L 228.285156 149.851562 "/>
<path style="fill:none;stroke-width:1.2;stroke-linecap:butt;stroke-linejoin:miter;stroke:rgb(0%,0%,0%);stroke-opacity:1;stroke-miterlimit:10;" d="M 209.980469 155.609375 L 223.957031 146.835938 "/>
<path style="fill:none;stroke-width:1.2;stroke-linecap:butt;stroke-linejoin:miter;stroke:rgb(0%,0%,0%);stroke-opacity:1;stroke-miterlimit:10;" d="M 228.285156 149.851562 L 227.523438 129.238281 "/>
<path style="fill:none;stroke-width:1.2;stroke-linecap:butt;stroke-linejoin:miter;stroke:rgb(0%,0%,0%);stroke-opacity:1;stroke-miterlimit:10;" d="M 228.285156 149.851562 L 246.515625 159.5 "/>
<path style="fill:none;stroke-width:1.2;stroke-linecap:butt;stroke-linejoin:miter;stroke:rgb(0%,0%,0%);stroke-opacity:1;stroke-miterlimit:10;" d="M 227.523438 129.238281 L 209.289062 119.589844 "/>
<path style="fill:none;stroke-width:1.2;stroke-linecap:butt;stroke-linejoin:miter;stroke:rgb(0%,0%,0%);stroke-opacity:1;stroke-miterlimit:10;" d="M 223.429688 132.5625 L 208.84375 124.847656 "/>
<path style="fill:none;stroke-width:1.2;stroke-linecap:butt;stroke-linejoin:miter;stroke:rgb(0%,0%,0%);stroke-opacity:1;stroke-miterlimit:10;" d="M 246.515625 159.5 L 255.632812 164.320312 "/>
<path style="fill:none;stroke-width:1.2;stroke-linecap:butt;stroke-linejoin:miter;stroke:rgb(0%,0%,100%);stroke-opacity:1;stroke-miterlimit:10;" d="M 255.632812 164.320312 L 264.75 169.144531 "/>
<path style="fill:none;stroke-width:1.2;stroke-linecap:butt;stroke-linejoin:miter;stroke:rgb(0%,0%,0%);stroke-opacity:1;stroke-miterlimit:10;" d="M 246.070312 164.753906 L 253.363281 168.613281 "/>
<path style="fill:none;stroke-width:1.2;stroke-linecap:butt;stroke-linejoin:miter;stroke:rgb(0%,0%,100%);stroke-opacity:1;stroke-miterlimit:10;" d="M 253.363281 168.613281 L 260.65625 172.46875 "/>
<path style="fill:none;stroke-width:1.2;stroke-linecap:butt;stroke-linejoin:miter;stroke:rgb(0%,0%,0%);stroke-opacity:1;stroke-miterlimit:10;" d="M 250.609375 156.171875 L 257.902344 160.03125 "/>
<path style="fill:none;stroke-width:1.2;stroke-linecap:butt;stroke-linejoin:miter;stroke:rgb(0%,0%,100%);stroke-opacity:1;stroke-miterlimit:10;" d="M 257.902344 160.03125 L 265.195312 163.890625 "/>
<path style=" stroke:none;fill-rule:nonzero;fill:rgb(100%,100%,100%);fill-opacity:1;" d="M 261.75 163.644531 L 268.75 163.644531 L 268.75 174.644531 L 261.75 174.644531 Z M 261.75 163.644531 "/>
<g style="fill:rgb(0%,0%,100%);fill-opacity:1;">
  <use xlink:href="#glyph0-2" x="261.75" y="172.307617"/>
</g>
</g>
</svg>

<svg xmlns="http://www.w3.org/2000/svg" xmlns:xlink="http://www.w3.org/1999/xlink" width="300pt" height="300pt" viewBox="0 0 300 300"><defs><symbol overflow="visible"><path d="M.453 1.594v-7.938h4.5v7.938zm.5-.5h3.5v-6.938h-3.5zm0 0"/></symbol><symbol overflow="visible" id="a"><path d="M3.547-5.953c-.65 0-1.164.242-1.547.72-.375.48-.563 1.13-.563 1.952 0 .835.188 1.49.563 1.967.383.48.898.72 1.547.72.644 0 1.156-.24 1.53-.72.376-.476.564-1.132.564-1.968 0-.822-.187-1.474-.562-1.954-.375-.477-.887-.72-1.53-.72zm0-.734c.914 0 1.648.312 2.203.937.55.617.828 1.438.828 2.47 0 1.042-.277 1.87-.828 2.483-.555.617-1.29.922-2.203.922-.93 0-1.668-.305-2.22-.922C.774-1.41.5-2.237.5-3.28c0-1.033.273-1.853.828-2.47.55-.625 1.29-.938 2.22-.938zm0 0"/></symbol><symbol overflow="visible" id="b"><path d="M.89-6.563H2.08l2.906 5.485v-5.484h.86V0H4.656L1.75-5.484V0H.89zm0 0"/></symbol></defs><g><path fill="#fff" d="M0 0h300v300H0z"/><path d="M42.938 98.402l-3.844 9.57" stroke-width="1.2" stroke="#000" stroke-miterlimit="10" fill="none"/><path d="M39.094 107.973l-3.844 9.57M35.25 117.543l6.367 8.113" stroke-width="1.2" stroke="#f00" stroke-miterlimit="10" fill="none"/><path d="M41.617 125.656l6.367 8.114" stroke-width="1.2" stroke="#000" stroke-miterlimit="10" fill="none"/><path d="M31.25 112.043h8v11h-8zm0 0" fill="#fff"/><use xlink:href="#a" x="31.25" y="120.706" fill="#f00"/><path d="M47.984 133.77l20.418-2.91M50.71 138.285l16.337-2.332M40.297 152.914l7.687-19.144M68.402 130.86l12.735 16.226M81.137 147.086L73.45 166.23M75.863 147.19l-6.148 15.314M73.45 166.23l-20.423 2.91M73.45 166.23l12.734 16.227M53.027 169.14l-12.73-16.226M55.574 164.523L45.387 151.54M83.93 181.555l-3.844 9.57" stroke-width="1.2" stroke="#000" stroke-miterlimit="10" fill="none"/><path d="M80.086 191.125l-3.844 9.57" stroke-width="1.2" stroke="#f00" stroke-miterlimit="10" fill="none"/><path d="M88.434 183.363l-3.844 9.57" stroke-width="1.2" stroke="#000" stroke-miterlimit="10" fill="none"/><path d="M84.59 192.934l-3.844 9.57" stroke-width="1.2" stroke="#f00" stroke-miterlimit="10" fill="none"/><path d="M86.184 182.457L96.394 181" stroke-width="1.2" stroke="#000" stroke-miterlimit="10" fill="none"/><path d="M96.395 181l10.207-1.457" stroke-width="1.2" stroke="#00f" stroke-miterlimit="10" fill="none"/><path d="M70.496 196.098h8v11h-8zm0 0" fill="#fff"/><use xlink:href="#a" x="70.496" y="204.761" fill="#f00"/><path d="M106.602 179.543l6.367 8.117" stroke-width="1.2" stroke="#00f" stroke-miterlimit="10" fill="none"/><path d="M112.97 187.66l6.366 8.113M114.293 160.402l-3.844 9.57" stroke-width="1.2" stroke="#000" stroke-miterlimit="10" fill="none"/><path d="M110.45 169.973l-3.848 9.57" stroke-width="1.2" stroke="#00f" stroke-miterlimit="10" fill="none"/><path d="M103.602 174.043h7v11h-7zm0 0" fill="#fff"/><use xlink:href="#b" x="103.602" y="182.706" fill="#00f"/><path d="M119.336 195.773l20.422-2.914M139.758 192.86l7.687-19.14" stroke-width="1.2" stroke="#000" stroke-miterlimit="10" fill="none"/><path d="M134.71 157.492m1.415 2.645l.82-.645m.594 3.29l1.64-1.286m-.227 3.934l2.46-1.934m-1.046 4.578l3.28-2.574m-1.866 5.223l4.103-3.22m-2.692 5.864l4.927-3.863m-3.535 6.46l5.727-4.49" stroke="#000" stroke-miterlimit="10" fill="none"/><path d="M134.71 157.492l-20.417 2.91M134.71 157.492l-10.964-17.472M154.72 152.457l-20.01 5.035M123.746 140.02l13.227-15.83M136.973 124.19l9.57 3.845" stroke-width="1.2" stroke="#000" stroke-miterlimit="10" fill="none"/><path d="M146.543 128.035l9.57 3.844M156.113 131.88l-.7 10.288" stroke-width="1.2" stroke="#00f" stroke-miterlimit="10" fill="none"/><path d="M155.414 142.168l-.695 10.29" stroke-width="1.2" stroke="#000" stroke-miterlimit="10" fill="none"/><path d="M156.113 131.88l8.735-5.485" stroke-width="1.2" stroke="#00f" stroke-miterlimit="10" fill="none"/><path d="M164.848 126.395l8.738-5.485" stroke-width="1.2" stroke="#000" stroke-miterlimit="10" fill="none"/><path d="M153.113 126.38h7v11h-7zm0 0" fill="#fff"/><use xlink:href="#b" x="153.113" y="135.042" fill="#00f"/><path d="M173.586 120.91l18.23 9.65M191.816 130.56l.762 20.612M196.746 132.44l.61 16.49M209.29 119.59l-17.474 10.97M192.578 151.172l18.234 9.648M210.813 160.82l17.472-10.968M209.98 155.61l13.977-8.774M228.285 149.852l-.762-20.614M228.285 149.852l18.23 9.648M227.523 129.238l-18.234-9.648M223.43 132.563l-14.586-7.715M246.516 159.5l9.117 4.82" stroke-width="1.2" stroke="#000" stroke-miterlimit="10" fill="none"/><path d="M255.633 164.32l9.117 4.825" stroke-width="1.2" stroke="#00f" stroke-miterlimit="10" fill="none"/><path d="M246.07 164.754l7.293 3.86" stroke-width="1.2" stroke="#000" stroke-miterlimit="10" fill="none"/><path d="M253.363 168.613l7.293 3.856" stroke-width="1.2" stroke="#00f" stroke-miterlimit="10" fill="none"/><path d="M250.61 156.172l7.292 3.86" stroke-width="1.2" stroke="#000" stroke-miterlimit="10" fill="none"/><path d="M257.902 160.03l7.293 3.86" stroke-width="1.2" stroke="#00f" stroke-miterlimit="10" fill="none"/><path d="M261.75 163.645h7v11h-7zm0 0" fill="#fff"/><use xlink:href="#b" x="261.75" y="172.308" fill="#00f"/></g></svg>
